!!!COM:	Ockeghem, Johannes
!!!CDT:	~1425-1497/02/06
!!!OPR:	Missa Caput
!!!ONM:	3
!!!OTL:	Credo
!!!AGN:	Mass; Credo
!!!SCT:	Ock1003c
!!!voices:	4
!!!voices-OPR:	4
**kern	**kern	**kern	**kern
*staff4	*staff3	*staff2	*staff1
*Ivox	*Ivox	*Ivox	*Ivox
*I"Tenor1	*I"Tenor2	*I"Contratenor	*I"Discantus
*I'T1	*I'T2	*I'Ct	*I'D
*clefF4	*clefGv2	*clefGv2	*clefG2
*>A	*>A	*>A	*>A
*k[]	*k[]	*k[]	*k[]
*M3/1	*M3/1	*M3/1	*M3/1
*met(O)	*met(O)	*met(O)	*met(O)
=1-	=1-	=1-	=1-
!!section: Patrem
!!!OMD: Patrem
0.r	0.r	0.A	0.a
=2	=2	=2	=2
0.r	0.r	1c	1g
.	.	1.d	1.f
.	.	4c\	2e/
.	.	4d\	.
=3	=3	=3	=3
0.r	0.r	1e	2g/
.	.	.	4f/
.	.	.	4g/
.	.	2f\	2a/
.	.	1d	2f/
.	.	.	1e
.	.	2c\	.
=4	=4	=4	=4
0.r	0.r	1d	2d/
.	.	.	2f/
.	.	2c\	2e/
.	.	1B	1d
.	.	2A/	2c/
=5	=5	=5	=5
0.r	0.r	2r	1B
.	.	2d\	.
.	.	2c\	1A
.	.	1e	.
.	.	.	2r
.	.	2f\	[2a/
=6	=6	=6	=6
0.r	0.r	2d\	1a]
.	.	2f\	.
.	.	1e	2g/
.	.	.	2cc\
.	.	2d\	4b\
.	.	.	4a/
.	.	2c\	[2a/
=7	=7	=7	=7
!!linebreak:original
0.r	0.r	1B	2a/]
.	.	.	2g/
.	.	2A/	2.a/
.	.	2.c\	.
.	.	.	4g/
.	.	.	2.e/
.	.	4B\	.
.	.	[2G/	.
.	.	.	4d/
=8	=8	=8	=8
0.r	0.r	2G/]	2e/
.	.	2A/	2f/
.	.	1c	2e/
.	.	.	2.a/
.	.	2F/	.
.	.	.	4g/
.	.	2G/	2e/
=9	=9	=9	=9
0.r	0.r	2.A/	2f/
.	.	.	2g/
.	.	4G/	.
.	.	2A/	1c
.	.	1c	.
.	.	.	1d
.	.	2B\	.
=10	=10	=10	=10
0.r	0.r	0.c	0.c
=11	=11	=11	=11
0.r	0.r	0.r	0.r
=12	=12	=12	=12
0.r	0.r	1d	0f
.	.	2A/	.
.	.	1d	.
.	.	.	1e
.	.	2c\	.
=13	=13	=13	=13
0.r	0.r	1d	2d/
.	.	.	2f/
.	.	2e\	2g/
.	.	2f\	1a
.	.	1d	.
.	.	.	2f/
=14	=14	=14	=14
!!linebreak:original
0.r	0.r	2c\	2e/
.	.	1d	2d/
.	.	.	2f/
.	.	2c\	1e
.	.	2A/	.
.	.	2c\	[2a/
=15	=15	=15	=15
0.r	0.r	2d\	4a/]
.	.	.	8g/L
.	.	.	8a/J
.	.	1e	2g/
.	.	.	1e
.	.	2c\	.
.	.	2A/	2c/
.	.	2B\	2d/
=16	=16	=16	=16
0.r	0.r	2d\	2f/
.	.	1c	2e/
.	.	.	2.a/
.	.	2f\	.
.	.	.	8g/L
.	.	.	8a/J
.	.	1e	2g/
.	.	.	[2cc\
=17	=17	=17	=17
0.r	0.r	2c\	4cc\]
.	.	.	8b\L
.	.	.	8cc\J
.	.	2d\	2b\
.	.	1f	2a/
.	.	.	1dd
.	.	1e	.
.	.	.	2cc\
=18	=18	=18	=18
0.r	0.r	2d\	2b\
.	.	2c\	1a
.	.	1B	.
.	.	.	2g/
.	.	1A	2f/
.	.	.	[2e/
=19	=19	=19	=19
0.r	0.r	2c\	2e/]
.	.	2B\	2g/
.	.	2A/	2a/
.	.	1d	2d/
.	.	.	1e
.	.	2c#i\	.
=20	=20	=20	=20
0.r	0D	1.d	0d
.	.	1B	.
.	2G/	.	1r
.	2A/	2G/	.
=21	=21	=21	=21
!!pagebreak:original
[0.BB	0B	2.G/	1d
.	.	4F/	.
.	.	1D	2g/
.	.	.	2a/
.	[1d	1r	[1b
=22	=22	=22	=22
0.BB]	1d]	1r	2b\]
.	.	.	1g
.	0B	[0d	.
.	.	.	2a/
.	.	.	2.g/
.	.	.	4f/
=23	=23	=23	=23
[0.D	1A	0d]	2.f/
.	.	.	4g/
.	2D/	.	1a
.	1F	.	.
.	.	2A/	1d
.	2G/	2B\	.
=24	=24	=24	=24
0.D]	1A	2A/	1r
.	.	1d	.
.	1.B	.	1.f
.	.	2B\	.
.	.	1d	.
.	4A/	.	4e/
.	4B\	.	4f/
=25	=25	=25	=25
[0.C	1.c	0e	2g/
.	.	.	4f/
.	.	.	4g/
.	.	.	2a/
.	2B\	.	1g
.	1G	[1c	.
.	.	.	2e/
=26	=26	=26	=26
0.C]	2A/	1c]	2e/
.	1G	.	2c/
.	.	0e	1c
.	2E/	.	.
.	1E	.	1r
=27	=27	=27	=27
0.D	1r	1.d	1a
.	0F	.	1a
.	.	2c\	.
.	.	2.A/	1a
.	.	4B\	.
=28	=28	=28	=28
!!linebreak:original
1r	1E	1c	1g
1r	0D	2d\	1.f
.	.	2.B\	.
1BB	.	.	.
.	.	4A/	.
.	.	2B\	4e/
.	.	.	4f/
=29	=29	=29	=29
0.E	0C	2.c\	1g
.	.	4d\	.
.	.	2.e\	2a/
.	.	.	1g
.	.	4f\	.
.	1c	[1g	.
.	.	.	2e/
=30	=30	=30	=30
0G	1B	2g\]	1.d
.	.	2f\	.
.	0d	1d	.
.	.	.	2g/
1D	.	1f	2f/
.	.	.	[2a/
=31	=31	=31	=31
1E	1c	2e\	4a/]
.	.	.	4g/
.	.	2c\	2e/
1BB	1.B	0d	2r
.	.	.	2g/
1D	.	.	2f/
.	2A/	.	[2d/
=32	=32	=32	=32
0.D	1.A	0.r	2d/]
.	.	.	1f
.	2G/	.	2g/
.	1F	.	2a/
.	.	.	2f/
=33	=33	=33	=33
1C	2E/	0.r	2.g/
.	1C	.	.
.	.	.	4f/
0AA	.	.	4e/
.	.	.	4d/
.	2D/	.	1d
.	1E	.	.
.	.	.	2c#i/
=34	=34	=34	=34
1r	0D	1A	1.d
1r	.	1F	.
.	.	.	4c/
.	.	.	4d/
1BB	1r	2D/	2.B/
.	.	2G/	.
.	.	.	4A/
=35	=35	=35	=35
!!linebreak:original
[0.D	1F	2F/	0.A
.	.	1D	.
.	2G/	.	.
.	1A	2.d\	.
.	.	4c\	.
.	[2D/	2d\	.
=36	=36	=36	=36
0D]	2D/]	2A/	0.r
.	1A	1d	.
.	2B\	2f\	.
1C	1c	1e	.
=37	=37	=37	=37
[0.D	0.A	0.d	1.f
.	.	.	2g/
.	.	.	1a
=38	=38	=38	=38
0D]	0.d	1r	1a
.	.	1r	1.b
1BB	.	1B	.
.	.	.	2g/
=39	=39	=39	=39
1r	0.e	1c	1g
1r	.	1A	1.cc
1E	.	1r	.
.	.	.	2b\
=40	=40	=40	=40
0G	0.d	0G	1b
.	.	.	1b
[1D	.	[1F	1a
=41	=41	=41	=41
1D]	0.B	1F]	1r
1E	.	1G	1.g
1BB	.	1D	.
.	.	.	2f/
=42	=42	=42	=42
!!linebreak:original
0D	0.A	1r	0f
.	.	0d	.
1D	.	.	2d/
.	.	.	2f/
=43	=43	=43	=43
1C	0.r	2e\	2g/
.	.	2.c\	1a
0AA	.	.	.
.	.	4A/	.
.	.	2d\	2f/
.	.	2e\	1e
.	.	2c\	.
=44	=44	=44	=44
1r	0D	2d\	0.d
.	.	1A	.
1r	.	.	.
.	.	2B-\	.
1BB	1r	1G	.
=45	=45	=45	=45
[0.D	1.A	[0.F	0.r
.	2.d\	.	.
.	4c\	.	.
.	[2A/	.	.
=46	=46	=46	=46
1D]	2A/]	1F]	0.r
.	2B\	.	.
0C	2c\	0E	.
.	2A/	.	.
.	1G	.	.
=47	=47	=47	=47
[0.D	1.F	2.F/	0.r
.	.	4G/	.
.	.	2A/	.
.	2G/	1D	.
.	1A	.	.
.	.	[2F/	.
=48	=48	=48	=48
1D]	2.D/	4F/]	1r
.	.	4G/	.
.	.	1A	.
.	4E/	.	.
0BB	2F/	.	0d
.	2.G/	2B\	.
.	.	2.G/	.
.	4F/	.	.
.	2D/	.	.
.	.	4F/	.
=49	=49	=49	=49
!!pagebreak:original
[0.AA	2r	1A	1e
.	1A	.	.
.	.	2E/	2r
.	2F/	2F/	1a
.	2G/	2E/	.
.	2A/	2r	[2f/
=50	=50	=50	=50
0.AA]	2E/	1A	4f/]
.	.	.	4g/
.	2F/	.	2a/
.	2E/	2B\	2e/
.	1A	2.c\	2f/
.	.	.	2e/
.	.	4d\	.
.	[2c\	[2e\	[2a/
=51	=51	=51	=51
0.r	4c\]	2e\]	4a/]
.	4d\	.	4b\
.	2e\	1A	1cc
.	2A/	.	.
.	1d	2G/	2b\
.	.	1F	1a
.	2c\	.	.
=52	=52	=52	=52
0.r	2B\	2G/	2.g/
.	1e	1E	.
.	.	.	4a/
.	.	.	2b\
.	2c\	1e	1a
.	1B	.	.
.	.	2d\	2g#i/
=53	=53	=53	=53
1r	0.A	1e	0.a
1r	.	1c	.
1D	.	[1d	.
=54	=54	=54	=54
0.D	0.r	2d\]	1r
.	.	2c\	.
.	.	1A	1r
.	.	1d	1a
=55	=55	=55	=55
1E	0.r	1r	1g
0F	.	0c	2f/
.	.	.	1a
.	.	.	4g/
.	.	.	4f/
=56	=56	=56	=56
!!linebreak:original
0G	0G	1.B	1e
.	.	.	1.d
.	.	2G/	.
1D	1F	1A	.
.	.	.	2c/
=57	=57	=57	=57
1E	1E	2G/	1c
.	.	2c\	.
0F	0D	2d\	1r
.	.	1B	.
.	.	.	1d
.	.	2A/	.
=58	=58	=58	=58
0G	0C	0c	2e/
.	.	.	2f/
.	.	.	1g
1D	1F	2r	1a
.	.	2A/	.
=59	=59	=59	=59
0G	2G/	2B\	2g/
.	1B	1G	2e/
.	.	.	2d/
.	2G/	1d	1g
1D	1A	.	.
.	.	2d\	2f#i/
=60	=60	=60	=60
1E	2G/	1B	1g
.	4F/	.	.
.	4G/	.	.
0C	2A/	2c\	1r
.	2G/	2d\	.
.	1E	1e	1g
=61	=61	=61	=61
0D	1D	1r	2.f/
.	.	.	4g/
.	1F	1r	2.a/
.	.	.	4b\
1E	1G	[1e	[1cc
=62	=62	=62	=62
1C	1A	1e]	2cc\]
.	.	.	2a/
0BB	2r	0d	2b\
.	1B	.	1g
.	4A/	.	4f/
.	4B\	.	4g/
=63	=63	=63	=63
!!linebreak:original
[0.AA	1.c	1e	1.a
.	.	1r	.
.	2A/	.	4g/
.	.	.	4f/
.	2.c\	2.A/	2e/
.	.	.	2f/
.	4d\	4B\	.
=64	=64	=64	=64
0.AA]	1e	1c	2e/
.	.	.	2c/
.	1f	2d\	2r
.	.	1c	2A/
.	1e	.	2.c/
.	.	[2A/	.
.	.	.	4d/
=65	=65	=65	=65
0.r	1A	2A/]	2e/
.	.	2F/	2f/
.	2B\	2E/	2g/
.	1A	2F/	2.a/
.	.	1D	.
.	.	.	2f/
.	2d\	.	.
.	.	.	4d/
=66	=66	=66	=66
0.r	4c\	2A/	4e/
.	2d\	.	2f/
.	.	4B-\	.
.	4e\	4G/	4g/
.	2c\	2A/	2e/
.	1d	2D/	2d/
.	.	2.d\	2.f/
.	[2A/	.	.
.	.	4Bni\	4e/
=67	=67	=67	=67
0.r	2A/]	2c\	2e/
.	2D/	2d\	2f/
.	2F/	2A/	2d/
.	2G/	2B\	1d
.	1E	1G	.
.	.	.	2c#i/
=68	=68	=68	=68
1r	0D	1A	0.d
1r	.	1B	.
1D	2.F/	1A	.
.	4G/	.	.
=69	=69	=69	=69
0.D	1A	1d	0.r
.	2B\	1r	.
.	2.d\	.	.
.	.	1r	.
.	4c\	.	.
.	2A/	.	.
=70	=70	=70	=70
!!linebreak:original
1E	2G/	1r	0.r
.	1c	.	.
0F	.	1r	.
.	2B\	.	.
.	1A	1A	.
=71	=71	=71	=71
0G	0G	1.B	0.r
.	.	2.d\	.
1D	1r	.	.
.	.	4c\	.
.	.	2A/	.
=72	=72	=72	=72
1E	0.r	2G/	1r
.	.	1c	.
0F	.	.	1r
.	.	2B\	.
.	.	1A	1a
=73	=73	=73	=73
0G	0.r	1G	1.b
.	.	1g	.
.	.	.	1dd
[1D	.	2.f\	.
.	.	.	[2a/
.	.	4g\	.
=74	=74	=74	=74
1D]	0.r	1a	2a/]
.	.	.	1.dd
0G	.	2.g\	.
.	.	4f\	.
.	.	2d\	2b\
.	.	[2g\	2g/
=75	=75	=75	=75
1D	1r	2g\]	1a
.	.	2f\	.
1E	1r	1g	1.g
1C	1E	1e	.
.	.	.	[2a/
=76	=76	=76	=76
0D	2D/	2f\	1a]
.	1F	1d	.
.	.	.	2.f/
.	4E/	2B\	.
.	4D/	.	4e/
1E	1C	1c	1e
=77	=77	=77	=77
!!pagebreak:original
1BB	1G	2B\	1d
.	.	2G/	.
0AA	0A	2r	1.c
.	.	2E/	.
.	.	2F/	.
.	.	2E/	[2e/
=78	=78	=78	=78
[0.GG	1.B	1G	2e/]
.	.	.	2d/
.	.	2D/	2d/
.	2c\	2G/	2e/
.	1d	2A/	2d/
.	.	[2B\	[2g/
=79	=79	=79	=79
0.GG]	2d\	2B\]	1g]
.	1e	2G/	.
.	.	2r	2a/
.	4d\	2D/	2b\
.	4c\	.	.
.	1B	2E/	2.g/
.	.	2G/	.
.	.	.	4f/
=80	=80	=80	=80
1r	0.A	1D	[0.a
1r	.	2r	.
.	.	2A/	.
1AA	.	2.c\	.
.	.	4d\	.
=81	=81	=81	=81
0.C	1r	0.e	1a]
.	1r	.	0g
.	1G	.	.
=82	=82	=82	=82
1C	1A	1c	1e
0D	1.B	2B\	2d/
.	.	2c\	1f
.	.	1d	.
.	2A/	.	2g/
=83	=83	=83	=83
0.C	0c	1G	2.e/
.	.	.	4f/
.	.	0E	2g/
.	.	.	2.a/
.	[1A	.	.
.	.	.	4b\
.	.	.	[2cc\
=84	=84	=84	=84
!!linebreak:original
0.r	1A]	1F	2cc\]
.	.	.	2a/
.	0G	1C	4b\
.	.	.	4a/
.	.	.	4g/
.	.	.	4f/
.	.	1r	2.e/
.	.	.	4d/
=85	=85	=85	=85
0.D	0.F	0.A	2.f/
.	.	.	4g/
.	.	.	2a/
.	.	.	1a
.	.	.	2f/
=86	=86	=86	=86
0.C	1r	1c	0e
.	0c	0e	.
.	.	.	1a
=87	=87	=87	=87
0.D	1B	0.d	1g
.	0A	.	1.f
.	.	.	2e/
=88	=88	=88	=88
0.E	0.G	1.B	1.g
.	.	1c	2f/
.	.	.	2.e/
.	.	2B\	.
.	.	.	4d/
=89	=89	=89	=89
0BB	1r	0B	0d
.	1F	.	.
[1GG	[1G	[1d	1g
=90	=90	=90	=90
1GG]	1G]	1d]	1b
0AA	0E	0c	0a
=91	=91	=91	=91
!!linebreak:original
1BB	1D	1d	1g
0AA	1E	1c	0cc
.	1F	1A	.
=92	=92	=92	=92
0.GG	1.G	1r	2.b\
.	.	.	4cc\
.	.	2.B\	1dd
.	2A/	.	.
.	.	4c\	.
.	2.B\	1d	2.g/
.	4c\	.	4f/
=93	=93	=93	=93
1.BB	1d	2.G/	2d/
.	.	.	2f/
.	.	4F/	.
.	2B\	2D/	2g/
2AA/	2c\	2E/	2a/
1BB	2d\	2D/	[1d
.	[2D/	[2G/	.
=94	=94	=94	=94
1GG	2D/]	4G/]	2d/]
.	.	4A/	.
.	2G/	2B\	2B/
0AA	2.F/	4c\	2A/
.	.	4B\	.
.	.	4A/	1d
.	4G/	4G/	.
.	1A	2.F#i/	.
.	.	.	2c/
.	.	4E/	.
=95	=95	=95	=95
0.GG	[0.Dl	2.G/	[0.dl
.	.	4A/	.
.	.	1.B	.
.	.	2G/	.
=96	=96	=96	=96
1r	0.D_	2.B\	0.d_
.	.	4c\	.
0D	.	0B	.
=97	=97	=97	=97
0.Dl	0.D]	0.Al	0.d]
!!linebreak:original
!!LO:LB:i:g=z
=98||	=98||	=98||	=98||
*>B	*>B	*>B	*>B
!!section: Et incarnatus est
!!!OMD: Et incarnatus est
*M2/1	*M2/1	*M2/1	*M2/1
*met(C|)	*met(C|)	*met(C|)	*met(C|)
0r	0r	0G	0d
=99	=99	=99	=99
0r	0r	0B-	0d
=100	=100	=100	=100
0r	0r	1A	1c
.	.	1F	1d
=101	=101	=101	=101
0r	0r	1E	0e
.	.	[1A	.
=102	=102	=102	=102
0r	0r	1A]	1e
.	.	1G	[1e
=103	=103	=103	=103
0r	0r	1A	1e]
.	.	1c	1e
=104	=104	=104	=104
0r	0r	1d	1f
.	.	[1f	[1a
=105	=105	=105	=105
!!pagebreak:original
0r	0r	1f]	1a]
.	.	1e	1g
=106	=106	=106	=106
0r	0r	0d	0f
=107	=107	=107	=107
0r	0r	1.c	0e
.	.	2d\	.
=108	=108	=108	=108
0r	0r	0e	1r
.	.	.	1b
=109	=109	=109	=109
0r	0r	0d	1b
.	.	.	1b
=110	=110	=110	=110
0r	0r	1r	1cc
.	.	[1d	[1b
=111	=111	=111	=111
0r	0r	1d]	2b\]
.	.	.	2a/
.	.	1c	[1a
=112	=112	=112	=112
!!linebreak:original
0r	0r	0B	2a/]
.	.	.	2f/
.	.	.	1g
=113	=113	=113	=113
0r	0r	1A	1a
.	.	1B	1d
=114	=114	=114	=114
0r	0r	1A	2e/
.	.	.	1f
.	.	2d\	.
.	.	2c\	2e/
=115	=115	=115	=115
0r	0r	2d\	2f/
.	.	2B\	2g/
.	.	1c	1e
=116	=116	=116	=116
0r	0r	1r	1c
.	.	[1e	1r
=117	=117	=117	=117
0r	0r	2e\]	[0g
.	.	2d\	.
.	.	1B	.
=118	=118	=118	=118
0r	0r	1c	1g]
.	.	[1d	1f
=119	=119	=119	=119
!!linebreak:original
0r	0r	1d]	0e
.	.	1c#i	.
=120	=120	=120	=120
0r	0r	[0d	0d
=121	=121	=121	=121
0r	0r	0d]	0r
=122	=122	=122	=122
0r	0r	0r	0e
=123	=123	=123	=123
0r	0r	0A	1e
.	.	.	[1a
=124	=124	=124	=124
0r	0r	1A	1a]
.	.	[1c	1a
=125	=125	=125	=125
0r	0r	1c]	1g
.	.	1d	1f
=126	=126	=126	=126
!!linebreak:original
0r	0r	2c\	0e
.	.	1c	.
.	.	2A/	.
=127	=127	=127	=127
0r	0r	1B	1d
.	.	1A	1c
=128	=128	=128	=128
0r	0r	1r	0B
.	.	1d	.
=129	=129	=129	=129
0r	0r	2c\	0A
.	.	2d\	.
.	.	1e	.
=130	=130	=130	=130
0r	0r	1e	1c
.	.	1d	1B
=131	=131	=131	=131
0r	0r	2c\	1c
.	.	1A	.
.	.	.	1d
.	.	2B\	.
=132	=132	=132	=132
0r	0r	2G/	1e
.	.	2c\	.
.	.	2B\	2d/
.	.	[2A/	2c/
=133	=133	=133	=133
!!pagebreak:original
0r	0r	2A/]	1B
.	.	2G/	.
.	.	1A	1A
=134	=134	=134	=134
0r	0r	1D	1r
.	.	1r	[1a
=135	=135	=135	=135
0r	0r	1d	1a]
.	.	[1c	1a
=136	=136	=136	=136
0r	0r	1c]	0g
.	.	1B	.
=137	=137	=137	=137
0r	0r	1A	1f
.	.	2G/	1e
.	.	[2c\	.
=138	=138	=138	=138
0r	0r	2c\]	2c/
.	.	2B\	1d
.	.	1d	.
.	.	.	2f/
=139	=139	=139	=139
0r	0r	2c\	2e/
.	.	1B	2d/
.	.	.	2g/
.	.	[2A/	2f/
=140	=140	=140	=140
!!linebreak:original
0r	0r	2A/]	1a
.	.	2F/	.
.	.	1E	2g/
.	.	.	[2e/
=141	=141	=141	=141
0r	0r	1A	2e/]
.	.	.	2f/
.	.	1G	2e/
.	.	.	2g/
=142	=142	=142	=142
0r	0r	1D	2f/
.	.	.	1d
.	.	2F/	.
.	.	2G/	2B/
=143	=143	=143	=143
0r	0r	2A/	2c/
.	.	2D/	1d
.	.	1E	.
.	.	.	2c#i/
=144	=144	=144	=144
0r	[0D	0r	0d
=145	=145	=145	=145
0r	0D]	0A	0r
=146	=146	=146	=146
[0BB	1F#	1.B	[0d
.	1G	.	.
.	.	2c\	.
=147	=147	=147	=147
!!linebreak:original
0BB]	0B	1d	0d]
.	.	1d	.
=148	=148	=148	=148
[0D	1.A	0d	1.f
.	2G/	.	2g/
=149	=149	=149	=149
0D]	1F	1f	1.a
.	1D	1f	.
.	.	.	2b\
=150	=150	=150	=150
0C	0E	1e	0cc
.	.	1e	.
=151	=151	=151	=151
0D	0r	1d	0f
.	.	[1d	.
=152	=152	=152	=152
0BB	0D	1d]	1r
.	.	1B	1f
=153	=153	=153	=153
1r	1E	1c	0e
1E	[1G	1B	.
=154	=154	=154	=154
!!linebreak:original
0G	1G]	1B	1d
.	1B	[1d	[1g
=155	=155	=155	=155
0D	0A	0d]	2g/]
.	.	.	2e/
.	.	.	1f
=156	=156	=156	=156
1E	0G	1B	1g
1BB	.	[1d	1b
=157	=157	=157	=157
[0D	1.F	2d\]	0a
.	.	2c\	.
.	.	1A	.
.	2G/	.	.
=158	=158	=158	=158
0D]	1A	1.d	1f
.	1B	.	1d
.	.	2B\	.
=159	=159	=159	=159
1C	0A	0c	0e
1AA	.	.	.
=160	=160	=160	=160
1BB	1G	1r	0d
[1D	1F	1d	.
=161	=161	=161	=161
!!pagebreak:original
1D]	0E	1e	0g
1C	.	1e	.
=162	=162	=162	=162
[0D	[0D	1A	1.f
.	.	1A	.
.	.	.	2g/
=163	=163	=163	=163
1D]	0D]	0d	1a
1BB	.	.	1b
=164	=164	=164	=164
1r	0r	0e	0cc
1E	.	.	.
=165	=165	=165	=165
0G	[0d	1d	1.b
.	.	[1B	.
.	.	.	2g/
=166	=166	=166	=166
1G	0d]	1B]	1g
[1D	.	1A	1r
=167	=167	=167	=167
1D]	0B	1d	1f
1E	.	1r	1g
=168	=168	=168	=168
!!linebreak:original
1BB	0d	1d	1.b
[1D	.	1f	.
.	.	.	2a/
=169	=169	=169	=169
0D]	1A	1f	1a
.	1B	1d	1f
=170	=170	=170	=170
1C	0c	1e	1e
1AA	.	1c	1a
=171	=171	=171	=171
1BB	0B	0d	2g/
.	.	.	1g
[1D	.	.	.
.	.	.	2f/
=172	=172	=172	=172
1D]	0A	1d	2a/
.	.	.	4g/
.	.	.	4f/
1C	.	1e	1e
=173	=173	=173	=173
[0D	1r	0f	1d
.	1A	.	[1a
=174	=174	=174	=174
0D]	0A	1r	1a]
.	.	1d	1f
=175	=175	=175	=175
!!linebreak:original
0BB	0B	1d	0g
.	.	1d	.
=176	=176	=176	=176
0AA	0c	0e	0a
=177	=177	=177	=177
0D	1r	[0f	1b
.	1d	.	[1dd
=178	=178	=178	=178
1r	0d	0f]	2dd\]
.	.	.	2cc\
1D	.	.	[1a
=179	=179	=179	=179
0D	0B	0d	1a]
.	.	.	1f
=180	=180	=180	=180
1E	0c	0r	1g
1F	.	.	1a
=181	=181	=181	=181
[0G	1B	0r	0d
.	[1G	.	.
=182	=182	=182	=182
!!linebreak:original
1G]	1G]	1d	0dd
1D	1B	1f	.
=183	=183	=183	=183
1E	0A	1e	0cc
1F	.	1c	.
=184	=184	=184	=184
0G	1r	1e	0b
.	1G	[1d	.
=185	=185	=185	=185
1D	[0d	1d]	1a
[1G	.	1B	1g
=186	=186	=186	=186
1G]	1d]	1G	1b
1D	1f	1d	1a
=187	=187	=187	=187
1E	0e	1B	1r
1C	.	1c	1g
=188	=188	=188	=188
0D	0d	0A	0f
=189	=189	=189	=189
!!pagebreak:original
1E	1c	1G	0e
1C	[1A	1A	.
=190	=190	=190	=190
0BB	1A]	0B	0d
.	1G#i	.	.
=191	=191	=191	=191
0AA	0A	[0c	1r
.	.	.	[1a
=192	=192	=192	=192
0r	0r	1c]	1a]
.	.	1A	2.cc\
.	.	.	4b\
=193	=193	=193	=193
0r	0r	2c\	2a/
.	.	2d\	1a
.	.	1B	.
.	.	.	2g#i/
=194	=194	=194	=194
0r	0r	1A	1a
.	.	1r	2g/
.	.	.	[2e/
=195	=195	=195	=195
0r	0r	1A	2e/]
.	.	.	2f/
.	.	2G/	2e/
.	.	2A/	[2c/
=196	=196	=196	=196
!!linebreak:original
0r	0r	2c\	2c/]
.	.	1c	2e/
.	.	.	1d
.	.	2B\	.
=197	=197	=197	=197
0r	0r	1c	1c
.	.	1d	1f
=198	=198	=198	=198
0r	0r	2B\	2g/
.	.	2A/	1a
.	.	1d	.
.	.	.	2f/
=199	=199	=199	=199
0r	[0A	2c\	1e
.	.	2d\	.
.	.	1e	1r
=200	=200	=200	=200
0r	0A]	2f\	0r
.	.	1e	.
.	.	2c\	.
=201	=201	=201	=201
0r	1B	2d\	0r
.	.	2B\	.
.	1A	1c	.
=202	=202	=202	=202
0r	1D	1d	0r
.	2C/	1A	.
.	[2D/	.	.
=203	=203	=203	=203
!!linebreak:original
0r	2D/]	2B\	0r
.	2AA/	1A	.
.	2D/	.	.
.	2E/	2F/	.
=204	=204	=204	=204
0r	1C	1F	0r
.	1F	2r	.
.	.	2A/	.
=205	=205	=205	=205
0r	2G/	2B\	0r
.	1A	1c	.
.	2B\	2d\	.
=206	=206	=206	=206
0r	2G/	1e	0r
.	1A	.	.
.	.	2c\	.
.	[2D/	2B\	.
=207	=207	=207	=207
0r	2D/]	2A/	0r
.	2F/	1d	.
.	1E	.	.
.	.	2c#i\	.
=208	=208	=208	=208
1r	0D	1.d	0a
1D	.	.	.
.	.	2e\	.
=209	=209	=209	=209
[0D	1r	0f	1b-i
.	1d	.	[1a
=210	=210	=210	=210
!!linebreak:original
0D]	0d	1r	1a]
.	.	1d	1f
=211	=211	=211	=211
0E	1G	1B	0g
.	1B	1G	.
=212	=212	=212	=212
0F	0A	0c	0a
=213	=213	=213	=213
[0G	0G	1r	0b
.	.	1d	.
=214	=214	=214	=214
1G]	0d	1B	1g
1D	.	1A	1f
=215	=215	=215	=215
1E	0c	1G	1.g
1F	.	1A	.
.	.	.	2f/
=216	=216	=216	=216
1G	1B	1B	0d
1D	[1d	1A	.
=217	=217	=217	=217
!!pagebreak:original
0G	1d]	2G/	1r
.	.	1B	.
.	1e	.	1g
.	.	2G/	.
=218	=218	=218	=218
1D	1d	1A	1f
1E	1B	1G	[1e
=219	=219	=219	=219
0C	0c	1r	1e]
.	.	1e	[1a
=220	=220	=220	=220
0D	0A	1.d	0a]
.	.	2c\	.
=221	=221	=221	=221
0E	1G	1B	1e
.	1E	1G	1c
=222	=222	=222	=222
1BB	0D	1r	0d
1GG	.	1B	.
=223	=223	=223	=223
0AA	1A	1.c	1r
.	[1c	.	[1e
.	.	2d\	.
=224	=224	=224	=224
!!linebreak:original
1r	1c]	0e	1e]
1C	1A	.	1c
=225	=225	=225	=225
0C	0G	0c	1.e
.	.	.	2d/
=226	=226	=226	=226
0D	0F	1A	1f
.	.	1B	1f
=227	=227	=227	=227
0C	0G	0c	1e
.	.	.	1e
=228	=228	=228	=228
0D	1B	0r	0d
.	[1A	.	.
=229	=229	=229	=229
0C	1A]	0c	1e
.	1G	.	1e
=230	=230	=230	=230
0D	0F	0A	1f
.	.	.	1f
=231	=231	=231	=231
!!linebreak:original
0E	0E	1G	1.g
.	.	[1G	.
.	.	.	2a/
=232	=232	=232	=232
1BB	0D	1G]	0b
1GG	.	1B	.
=233	=233	=233	=233
0AA	0C	0A	1r
.	.	.	[1e
=234	=234	=234	=234
1r	1.E	0G	1e]
1C	.	.	[1c
.	2F/	.	.
=235	=235	=235	=235
0C	1G	0c	1c]
.	1A	.	1e
=236	=236	=236	=236
0D	1.B	1r	1d
.	.	1d	1f
.	4A/	.	.
.	4B\	.	.
=237	=237	=237	=237
0C	0c	1G	1.e
.	.	[1A	.
.	.	.	2d/
=238	=238	=238	=238
!!linebreak:original
0D	1A	1A]	0f
.	1F	1B	.
=239	=239	=239	=239
0C	0G	0c	1r
.	.	.	1e
=240	=240	=240	=240
0D	0F	0A	0f
=241	=241	=241	=241
0E	1E	0G	1g
.	[1G	.	1e
=242	=242	=242	=242
1BB	1G]	0B	1d
1GG	1B	.	[1d
=243	=243	=243	=243
0AA	0A	0r	2d/]
.	.	.	2B/
.	.	.	1c#i
=244	=244	=244	=244
0BB	0D	0B	0d
=245	=245	=245	=245
!!pagebreak:original
0AA	1E	1c	0r
.	1F	1A	.
=246	=246	=246	=246
0GG	1E	0B	1.g
.	[1G	.	.
.	.	.	2f/
=247	=247	=247	=247
1BB	1G]	1d	1d
1AA	1A	1c	[1f#
=248	=248	=248	=248
1BB	0D	1d	1f#]
1GG	.	1B	1g
=249	=249	=249	=249
0AA	0A	0c	1e
.	.	.	1f#i
=250	=250	=250	=250
[0GG	1.B	0d	1.g
.	2c\	.	2a/
=251	=251	=251	=251
0GG]	1.d	1G	1.b
.	.	1D	.
.	2c\	.	[2a/
=252	=252	=252	=252
!!linebreak:original
0r	1B	1d	2a/]
.	.	.	2g/
.	[1A	2e\	1a
.	.	[2c\	.
=253	=253	=253	=253
0r	1A]	2c\]	2f/
.	.	2A/	1e
.	1G	1B	.
.	.	.	2g/
=254	=254	=254	=254
0r	1D	1A	2f/
.	.	.	2.d/
.	1F	[1A	.
.	.	.	4c/
.	.	.	2d/
=255	=255	=255	=255
0r	0E	1A]	2e/
.	.	.	2B/
.	.	1G	1c#i
=256	=256	=256	=256
0D	[0Dl	[0Al	[0dl
=257	=257	=257	=257
0Dl	0D]	0A]	0d]
==	==	==	==
*-	*-	*-	*-
!!!RDF**kern: l=long note in original notation
!!!RDF**kern: i=editorial accidental
!!!ENC:	Will Watson 08/03/2012
!!!END:	2012/03/08/
!!!EED:	Jesse Rodin
!!!EEV:	2012/03/17/
!!!ONB:	Translated from MusicXML and edited on 2012/03/17/ by Craig Sapp
!!muse2ps: T^@{OPR}^u^@{ONM}{. }@{OTL}^C^@{COM}^i2I100v85,90,85,150Q16
